images_elementary_svg/cmd/sc_deletepage.svg

<svg height="16" width="16" xmlns="http://www.w3.org/2000/svg" xmlns:xlink="http://www.w3.org/1999/xlink"><linearGradient id="a" gradientTransform="matrix(.24324324 0 0 .35135133 2.162164 -.432428)" gradientUnits="userSpaceOnUse" x1="23.99999" x2="23.99999" y1="6.205239" y2="41.589603"><stop offset="0" stop-color="#fff"/><stop offset=".02929282" stop-color="#fff" stop-opacity=".235294"/><stop offset=".97230476" stop-color="#fff" stop-opacity=".156863"/><stop offset="1" stop-color="#fff" stop-opacity=".392157"/></linearGradient><linearGradient id="b" gradientTransform="matrix(.28571361 0 0 .30419701 1.142873 .232605)" gradientUnits="userSpaceOnUse" x1="25.132275" x2="25.132275" y1=".985206" y2="47.013336"><stop offset="0" stop-color="#f4f4f4"/><stop offset="1" stop-color="#dbdbdb"/></linearGradient><linearGradient id="c" gradientTransform="matrix(.25378586 0 0 .30501865 19.128979 -.685477)" gradientUnits="userSpaceOnUse" x1="-51.786404" x2="-51.786404" y1="50.786446" y2="2.906247"><stop offset="0" stop-opacity=".339506"/><stop offset="1" stop-opacity=".246914"/></linearGradient><linearGradient id="d" gradientTransform="matrix(.25858714 -.25858714 .25702757 .25702757 -.271689 12.077382)" gradientUnits="userSpaceOnUse" x1="43.279388" x2="10.342878" y1="16.127281" y2="49.010902"><stop offset="0" stop-color="#f8b17e"/><stop offset=".31209752" stop-color="#e35d4f"/><stop offset=".57054454" stop-color="#c6262e"/><stop offset="1" stop-color="#690b54"/></linearGradient><linearGradient id="e" gradientUnits="userSpaceOnUse" x1="8.137666" x2="7.969904" y1="15.661994" y2="5.234701"><stop offset="0" stop-color="#791235"/><stop offset="1" stop-color="#dd3b27"/></linearGradient><path d="m3 1c2.2915074 0 9.999988.0008904 9.999988.0008904l.000012 13.9991096s-6.6666668 0-10 0c0-4.666666 0-9.3333336 0-14z" fill="url(#b)"/><path d="m12.5 14.5h-9.0000001v-13h9.0000001z" fill="none" stroke="url(#a)" stroke-linecap="round"/><path d="m2.4999621.49997396c2.5206756 0 11.0000629.000954 11.0000629.000954l.000013 14.99909804s-7.3333841 0-11.000076 0c0-5.000017 0-10.000035 0-15.00005204z" fill="none" stroke="url(#c)" stroke-linejoin="round" stroke-width=".999922"/><path d="m9.9980469 8.5390625-1.4589844 1.4589844 2.0039065 2.0019531-2.0039065 2.003906 1.4589844 1.458985 2.0019531-2.001953 2.003906 2.001953 1.458985-1.458985-2.001953-2.003906 2.001953-2.0019531-1.458985-1.4589844-2.003906 2.0039065z" fill="url(#d)" fill-rule="evenodd" stroke="url(#e)" stroke-linejoin="round" stroke-width="1.074025"/><path d="m9.9980469 9.2675781-.7304688.7304688.5.5000001.2304688-.230469 2.0019531 2.001953 2.003906-2.001953.230469.230469.5-.5000001-.730469-.7304688-2.003906 2.0019529zm.7714841 3.2324219-1.5019529 1.503906.5.5 1.5019529-1.503906zm2.460938 0-.5.5 1.503906 1.503906.5-.5z" fill="#f8b17e" opacity=".4"/></svg>

<?xml version="1.0" encoding="UTF-8" standalone="no"?>
<svg
   xmlns:dc="http://purl.org/dc/elements/1.1/"
   xmlns:cc="http://creativecommons.org/ns#"
   xmlns:rdf="http://www.w3.org/1999/02/22-rdf-syntax-ns#"
   xmlns:svg="http://www.w3.org/2000/svg"
   xmlns="http://www.w3.org/2000/svg"
   xmlns:xlink="http://www.w3.org/1999/xlink"
   xmlns:sodipodi="http://sodipodi.sourceforge.net/DTD/sodipodi-0.dtd"
   xmlns:inkscape="http://www.inkscape.org/namespaces/inkscape"
   id="svg3810"
   height="16"
   width="16"
   version="1.1"
   sodipodi:docname="sc_deletepage.svg"
   inkscape:version="0.92.3 (unknown)"
   inkscape:export-filename="/home/rizmut/Dokumen/Rizmut/Github/libreoffice-style-elementary/images_elementary/cmd/sc_deletepage.png"
   inkscape:export-xdpi="96"
   inkscape:export-ydpi="96">
  <sodipodi:namedview
     pagecolor="#ffffff"
     bordercolor="#666666"
     borderopacity="1"
     objecttolerance="10"
     gridtolerance="10"
     guidetolerance="10"
     inkscape:pageopacity="0"
     inkscape:pageshadow="2"
     inkscape:window-width="1366"
     inkscape:window-height="706"
     id="namedview35"
     showgrid="true"
     inkscape:zoom="14.75"
     inkscape:cx="-0.20573307"
     inkscape:cy="1.3584537"
     inkscape:window-x="0"
     inkscape:window-y="0"
     inkscape:window-maximized="1"
     inkscape:current-layer="svg3810">
    <inkscape:grid
       type="xygrid"
       id="grid838" />
  </sodipodi:namedview>
  <defs
     id="defs3812">
    <linearGradient
       gradientTransform="matrix(0.24324324,0,0,0.35135133,2.1621636,-0.43242804)"
       gradientUnits="userSpaceOnUse"
       xlink:href="#linearGradient3977"
       id="linearGradient3988"
       y2="41.589603"
       x2="23.99999"
       y1="6.2052388"
       x1="23.99999" />
    <linearGradient
       id="linearGradient3977">
      <stop
         offset="0"
         style="stop-color:#ffffff;stop-opacity:1"
         id="stop3979" />
      <stop
         offset="0.02929282"
         style="stop-color:#ffffff;stop-opacity:0.23529412"
         id="stop3981" />
      <stop
         offset="0.97230476"
         style="stop-color:#ffffff;stop-opacity:0.15686275"
         id="stop3983" />
      <stop
         offset="1"
         style="stop-color:#ffffff;stop-opacity:0.39215687"
         id="stop3985" />
    </linearGradient>
    <linearGradient
       id="linearGradient3600">
      <stop
         offset="0"
         style="stop-color:#f4f4f4;stop-opacity:1"
         id="stop3602" />
      <stop
         offset="1"
         style="stop-color:#dbdbdb;stop-opacity:1"
         id="stop3604" />
    </linearGradient>
    <linearGradient
       gradientTransform="matrix(0.28571361,0,0,0.30419701,1.1428727,0.2326048)"
       gradientUnits="userSpaceOnUse"
       xlink:href="#linearGradient3600"
       id="linearGradient3806"
       y2="47.013336"
       x2="25.132275"
       y1="0.98520643"
       x1="25.132275" />
    <linearGradient
       id="linearGradient3104-9">
      <stop
         offset="0"
         style="stop-color:#000000;stop-opacity:0.33950618"
         id="stop3106-5" />
      <stop
         offset="1"
         style="stop-color:#000000;stop-opacity:0.24691358"
         id="stop3108-5" />
    </linearGradient>
    <linearGradient
       gradientTransform="matrix(0.25378586,0,0,0.30501865,19.128979,-0.68547704)"
       gradientUnits="userSpaceOnUse"
       xlink:href="#linearGradient3104-9"
       id="linearGradient3019"
       y2="2.9062471"
       x2="-51.786404"
       y1="50.786446"
       x1="-51.786404" />
    <radialGradient
       gradientTransform="matrix(0,0.38528829,-0.41958841,0,32.389496,-16.793007)"
       gradientUnits="userSpaceOnUse"
       xlink:href="#linearGradient3242-7-3-8-0-4-58-06"
       id="radialGradient3259"
       fy="48.605404"
       fx="64.575233"
       r="31.000002"
       cy="48.605404"
       cx="64.575233" />
    <linearGradient
       id="linearGradient3242-7-3-8-0-4-58-06">
      <stop
         offset="0"
         style="stop-color:#cdf87e;stop-opacity:1"
         id="stop3244-5-8-5-6-4-3-8" />
      <stop
         offset="0.26238"
         style="stop-color:#a2e34f;stop-opacity:1"
         id="stop3246-9-5-1-5-3-0-7" />
      <stop
         offset="0.66093999"
         style="stop-color:#68b723;stop-opacity:1"
         id="stop3248-7-2-0-7-5-35-9" />
      <stop
         offset="1"
         style="stop-color:#1d7e0d;stop-opacity:1"
         id="stop3250-8-2-8-5-6-40-4" />
    </linearGradient>
    <linearGradient
       id="a"
       gradientTransform="matrix(0.36872249,0,0,0.38856797,7.575734,7.143101)"
       gradientUnits="userSpaceOnUse"
       x1="11.192374"
       x2="11.192374"
       y1="4.0641632"
       y2="30.298229">
      <stop
         offset="0"
         stop-color="#ed5353"
         id="stop2" />
      <stop
         offset="1"
         stop-color="#c6262e"
         id="stop4" />
    </linearGradient>
    <linearGradient
       inkscape:collect="always"
       xlink:href="#h"
       id="linearGradient869"
       gradientUnits="userSpaceOnUse"
       gradientTransform="matrix(0.25858714,-0.25858714,0.25702757,0.25702757,-0.27168873,12.077382)"
       x1="43.279388"
       y1="16.127281"
       x2="10.342878"
       y2="49.010902" />
    <linearGradient
       id="h"
       gradientTransform="matrix(0.57894734,0,0,0.55555556,34.074641,10.496731)"
       gradientUnits="userSpaceOnUse"
       x1="11.192374"
       x2="11.192374"
       y1="-0.74098802"
       y2="30.298229">
      <stop
         offset="0"
         stop-color="#f8b17e"
         id="stop35" />
      <stop
         offset=".31209752"
         stop-color="#e35d4f"
         id="stop37" />
      <stop
         offset=".57054454"
         stop-color="#c6262e"
         id="stop39" />
      <stop
         offset="1"
         stop-color="#690b54"
         id="stop41" />
    </linearGradient>
    <linearGradient
       inkscape:collect="always"
       xlink:href="#i"
       id="linearGradient943"
       x1="8.1376657"
       y1="15.661994"
       x2="7.9699035"
       y2="5.2347012"
       gradientUnits="userSpaceOnUse" />
    <linearGradient
       id="i"
       gradientUnits="userSpaceOnUse"
       x1="41.225124"
       x2="41.225124"
       y1="23.238064"
       y2="7.3900399">
      <stop
         offset="0"
         stop-color="#791235"
         id="stop44" />
      <stop
         offset="1"
         stop-color="#dd3b27"
         id="stop46" />
    </linearGradient>
  </defs>
  <metadata
     id="metadata3815">
    <rdf:RDF>
      <cc:Work
         rdf:about="">
        <dc:format>image/svg+xml</dc:format>
        <dc:type
           rdf:resource="http://purl.org/dc/dcmitype/StillImage" />
        <dc:title />
      </cc:Work>
    </rdf:RDF>
  </metadata>
  <path
     d="m 3,1 c 2.2915074,0 9.999988,8.904e-4 9.999988,8.904e-4 L 13,15 C 13,15 6.3333332,15 3,15 3,10.333334 3,5.6666664 3,1 Z"
     id="path4160"
     style="display:inline;fill:url(#linearGradient3806);fill-opacity:1;stroke:none" />
  <path
     d="m 12.5,14.5 -9.0000001,0 0,-13 L 12.5,1.5 Z"
     id="rect6741-1"
     style="fill:none;stroke:url(#linearGradient3988);stroke-width:1;stroke-linecap:round;stroke-linejoin:miter;stroke-miterlimit:4;stroke-dasharray:none;stroke-dashoffset:0;stroke-opacity:1" />
  <path
     d="m 2.4999621,0.49997396 c 2.5206756,0 11.0000629,9.54e-4 11.0000629,9.54e-4 l 1.3e-5,14.99909804 c 0,0 -7.3333841,0 -11.000076,0 0,-5.000017 0,-10.000035 0,-15.00005204 z"
     id="path4160-8"
     style="display:inline;fill:none;stroke:url(#linearGradient3019);stroke-width:0.99992192;stroke-linecap:butt;stroke-linejoin:round;stroke-miterlimit:4;stroke-dasharray:none;stroke-dashoffset:0;stroke-opacity:1" />
  <g
     id="g953">
    <path
       inkscape:connector-curvature="0"
       id="path2262"
       d="M 9.9980469,8.5390625 8.5390625,9.9980469 10.542969,12 8.5390625,14.003906 9.9980469,15.462891 12,13.460938 14.003906,15.462891 15.462891,14.003906 13.460938,12 15.462891,9.9980469 14.003906,8.5390625 12,10.542969 Z"
       style="fill:url(#linearGradient869);fill-opacity:1;fill-rule:evenodd;stroke:url(#linearGradient943);stroke-width:1.07402468;stroke-linejoin:round;stroke-miterlimit:4;stroke-dasharray:none" />
    <path
       inkscape:connector-curvature="0"
       id="path3188"
       d="m 9.9980469,9.2675781 -0.7304688,0.7304688 0.5,0.5000001 L 9.9980469,10.267578 12,12.269531 l 2.003906,-2.001953 0.230469,0.230469 0.5,-0.5000001 L 14.003906,9.2675781 12,11.269531 Z M 10.769531,12.5 l -1.5019529,1.503906 0.5,0.5 L 11.269531,13 Z m 2.460938,0 -0.5,0.5 1.503906,1.503906 0.5,-0.5 z"
       style="opacity:0.4;fill:#f8b17e;fill-opacity:1;stroke:none;stroke-width:1.074;stroke-miterlimit:4;stroke-dasharray:none" />
  </g>
</svg>
